.local/share/icons/Gruvbox-Plus-Dark/panel/22/network-wireless-secure-signal-low.svg

<svg xmlns="http://www.w3.org/2000/svg" width="22" height="22" version="1.1">
 <defs>
  <style id="current-color-scheme" type="text/css">
   .ColorScheme-Text { color:#ebdbb2; } .ColorScheme-Highlight { color:#458588; }
  </style>
 </defs>
 <path style="fill:currentColor" class="ColorScheme-Text" d="M 16 12 C 14.892 12 14 12.9109 14 14.03125 L 14 15 L 13 15 L 13 19 L 19 19 L 19 15 L 18 15 L 18 14.03125 C 18 12.91135 17.108 12 16 12 z M 16 13 C 16.554 13 17 13.4424 17 14 L 17 15 L 15 15 L 15 14 C 15 13.4424 15.446 13 16 13 z"/>
 <path style="opacity:0.3;fill:currentColor" class="ColorScheme-Text" d="M 11 4 C 7.9494 4 5.0806 5.0732 3 7 L 11 18 L 12 16.625 L 12 14 L 13.013672 14 C 13.033321 12.365092 14.356157 11 16 11 C 16.028821 11 16.055366 11.008932 16.083984 11.009766 L 19 7 C 16.919 5.0731 14.051 4 11 4 z"/>
 <path style="fill:currentColor" class="ColorScheme-Text" d="M 11 12 A 7 7 0 0 0 7.3769531 13.017578 L 11 18 L 12 16.625 L 12 14 L 13.013672 14 C 13.020429 13.437767 13.189796 12.912855 13.464844 12.458984 A 7 7 0 0 0 11 12 z"/>
</svg>

<svg width="22" height="22" version="1.1" xmlns="http://www.w3.org/2000/svg">
  <defs>
    <style id="current-color-scheme" type="text/css">.ColorScheme-Text { color:#ebdbb2; } .ColorScheme-Highlight { color:#458588; } .ColorScheme-NeutralText { color:#fe8019; } .ColorScheme-PositiveText { color:#689d6a; } .ColorScheme-NegativeText { color:#fb4934; }</style>
  </defs>
  <path class="ColorScheme-Text" d="m16 12c-1.108 0-2 0.9109-2 2.031v0.9688h-1v4h6v-4h-1v-0.9688c0-1.12-0.892-2.031-2-2.031zm0 1c0.554 0 1 0.4424 1 1v1h-2v-1c0-0.5576 0.446-1 1-1z" fill="currentColor"/>
  <path class="ColorScheme-Text" d="m11 3.999c-3.377 0-6.431 1.351-9 3.242l9 10.76 1-1.193v-2.807h1c-5.5e-5 -1.657 1.343-3 3-3 0.2632 1.74e-4 0.5252 0.03498 0.7793 0.1035l3.221-3.844c-2.572-1.898-5.618-3.26-9-3.26z" fill="currentColor" opacity=".3"/>
  <path class="ColorScheme-Text" d="m11 12a6 6 0 0 0-3.846 1.402l3.846 4.598 1.004-1.197v-2.803h1a3 3 0 0 1 0.4043-1.49 6 6 0 0 0-2.408-0.5098z" fill="currentColor"/>
</svg>
